img/scheme/1.svg

<svg width="34" height="35" viewBox="0 0 34 35" fill="none" xmlns="http://www.w3.org/2000/svg">
<path d="M25.5001 13.492V10.942C25.5001 9.35521 25.5001 8.5618 25.1913 7.95572C24.9196 7.42259 24.4862 6.98915 23.9531 6.71751C23.347 6.40869 22.5536 6.40869 20.9667 6.40869H10.2001C8.61327 6.40869 7.81986 6.40869 7.21378 6.71751C6.68065 6.98915 6.2472 7.42259 5.97556 7.95572C5.66675 8.5618 5.66675 9.35521 5.66675 10.942V26.242L11.3334 23.4087M28.3334 29.0754L25.2255 27.0034C24.801 26.7204 24.5887 26.5789 24.3591 26.4787C24.1553 26.3897 23.9417 26.325 23.7228 26.286C23.4761 26.242 23.221 26.242 22.7108 26.242H15.8667C14.2799 26.242 13.4865 26.242 12.8804 25.9332C12.3473 25.6616 11.9139 25.2281 11.6422 24.695C11.3334 24.0889 11.3334 23.2955 11.3334 21.7087V18.0254C11.3334 16.4385 11.3334 15.6451 11.6422 15.0391C11.9139 14.5059 12.3473 14.0725 12.8804 13.8008C13.4865 13.492 14.2799 13.492 15.8667 13.492H23.8001C25.3869 13.492 26.1803 13.492 26.7864 13.8008C27.3195 14.0725 27.753 14.5059 28.0246 15.0391C28.3334 15.6451 28.3334 16.4385 28.3334 18.0254V29.0754Z" stroke="#C73509" stroke-width="2" stroke-linecap="round" stroke-linejoin="round"/>
</svg>

<svg width="34" height="35" fill="none" xmlns="http://www.w3.org/2000/svg"><path d="M25.5 13.492v-2.55c0-1.587 0-2.38-.309-2.986a2.834 2.834 0 0 0-1.238-1.238c-.606-.31-1.4-.31-2.986-.31H10.2c-1.587 0-2.38 0-2.986.31a2.833 2.833 0 0 0-1.238 1.238c-.31.606-.31 1.4-.31 2.986v15.3l5.667-2.833m17 5.666-3.107-2.072c-.425-.283-.637-.424-.867-.524a2.83 2.83 0 0 0-.636-.193c-.247-.044-.502-.044-1.012-.044h-6.844c-1.587 0-2.38 0-2.987-.309a2.834 2.834 0 0 1-1.238-1.238c-.309-.606-.309-1.4-.309-2.986v-3.684c0-1.586 0-2.38.31-2.986a2.834 2.834 0 0 1 1.237-1.238c.606-.309 1.4-.309 2.987-.309H23.8c1.587 0 2.38 0 2.986.309a2.83 2.83 0 0 1 1.239 1.238c.308.606.308 1.4.308 2.986v11.05Z" stroke="#C73509" stroke-width="2" stroke-linecap="round" stroke-linejoin="round"/></svg>
